X:1
T:Le chateau dans le ciel
T:Le chateau dans le ciel
T:Arrangement: Alix Jaugey
%%score { 1 | 2 }
L:1/8
M:4/4
K:C
V:1 treble nm="Piano" snm="Pno."
V:2 bass 
V:1
 z6[Q:1/4=104] AB |: c3 B c2 e2 | B4 z2 E2 | A3 G A2 c2 | G4 z2 EE |1 F3 E F c3 | E3 c c2 c2 | %7
w: L'ho- ri-|zon là- bas cin-|tille De|mil- les feux il|brille Puis- que|tu vie en son|sein Ca- ché dans|
w: |ces lu- mières sont|belles Si|elles nous é- mer-|veillent c'est *|||
w: |||||||
 B3 ^F ^F2 B2 | B6 AB :|2 F2 c B2 c2 c | d2 e c2- c3 | cBAA BA ^G2 | A8 || c4 d4 | e3 d e2 g2 | %15
w: le creux de ses|mains Si toute|grâce à toi parce- que|tu es là *|puis- que tu es l'un- e d'entre|elle|||
w: ||||||||
w: ||||||||
 d4 z2 B2 | c3 B c2 e2 | e8 | AB c2 Bc d2 | c3 G G4 | f2 e2 d3 c | e8 | z6 e2 | a4 g2 g2 | %24
w: |||||||Mon|père dé- po-|
w: |||||||||
w: |||||||||
 ed c4 c2 | d2 c d3 g2 | e6 e2 | a4 g2 g2 | ed c4 c2 | d2 c d3 B2 | A6 [Aa][Bb] :: c'3 b c'2 e'2 | %32
w: sa- en- moi ce|coeur si cha- leu-|reux Mon|re- gard vient|de ma mère Elle|dort là dans mes|yeux Si toute||
w: ||||||* L'ho- ri-|zon là- bas cin-|
w: |||||||ces lu- mières sont|
 b4 z2 e2 | a3 g a2 c'2 | g4 z2 ee |1 f3 e f c'3 | e3 c' c'2 c'2 | b3 ^f f2 b2 | b6 ab :|2 %39
w: ||* puis- que|tu vis en son|sein Ca- ché dans|le creux de ses|mains Si toute|
w: tille de|mil- les feux il|brille c'est *|||||
w: belles Si|elles nous é- mer|veillent * *|||||
 f2 c' b2 c'2 c' | d'2 e' c'2- c'3 | c'baa ba ^g2 | [cea]8 || z8 |] %44
w: grâce à toi parceque tu|es là * *|puis- que tu es l'une- e d'entre|elles||
w: |||||
w: |||||
V:2
 z8 |: A,,E,A,C E4 | G,,E,G,B, E4 | F,,C,F,A, C4 | E,,2 C,2 C,4 |1 D,,A,,D,F, A,4 | %6
 C,,G,,C,E, G,4 | B,,,B,,_E,^F, B,4 | E,,2 E,2 E,4 :|2 D,,A,,D,F, A,4 | C,,G,,C,E, G,4 | %11
 D,A,CA, E,B,DB, | A,,E,A,C E4 || z8 | C,G,CE G4 | B,,G,B,D G4 | A,,E,A,C E4 | G,,D,G,B, D4 | %18
 F,,2 [F,A,C]2 G,,2 [G,B,D]2 | E,,2 [G,CE]6 | D,2 [A,C]2 D, z [A,C]2 | %21
 [E,B,] [E,B,]2 [E,B,]2 [E,B,]2 [E,B,] | [E,^G,B,] [E,G,B,]2 [E,G,B,]3 z2 | A,,E,A,C EC A,2 | %24
 F,,C,F,A, CA, F,2 | G,,D,G,B, DB, G,2 | C,,G,,C,E, G,E, C,2 | A,,E,A,C EC A,2 | %28
 F,,C,F,A, CA, F,2 | G,,D,G,B, DB, G,2 | A,,E,A,C EC A,2 ::!<(! A,,E,A,C E4!<)! | G,,E,G,B, E4 | %33
 F,,C,F,A, C4 | E,,2 C,2 C,4 |1 D,,A,,D,F, A,4 | C,,G,,C,E, G,4 | B,,,B,,_E,_G, B,4 | %38
 E,,2 E,2 E,4 :|2 D,,A,,!>(!D,F, A,4 | C,,G,,C,E, G,4!>)! | D,A,CA, E,B,DB, | A,,2 E,2 A,2 C2 || %43
 E2 z2 z4 |] %44

